X: 29533
T: No Way Out
R: jig
M: 6/8
K: Eminor
B,3|:"Em" EGB e2d|"G" c<dd B3|"Am" EFG A2G|"Bm" F<DD "Em" E3|
"Em" EGB e2d|"G" c<dd B3|"D" AGF G2F|1 "Em" E3E2B,:|2 "Em" E2 z B3||
|:"Em" efg b2a|"D" g<aa f3|(4defg a2 g|"Bm" f<dd "Em" e3|
efg b2a|"D" g<aa "G" b3|"D"(4c'bag f2 g|1 "Em" e3 B3:|2 "Em"e2 z B,3||

